X: 1210
T: An Dro
R: reel
M: 4/4
K: Eminor
|:B2d2 e3B|B2d2 F4|A2BA F2ED|GFGA B3B|
B2d2 e3B|B2d2 F4|A2BA F2ED|1 GFGF E3B:|2 GFGF E4||
|:B3c B2BA|B2G2 E4|A2BA F2ED|GFGA B4|
B3c B2BA|B2G2 E4|A2BA F2ED|1 GFGF E4:|2 GFGF E3B||

